dist/svgs/crypto-icons/icons/vrc.svg

<?xml version="1.0" encoding="UTF-8" standalone="yes"?>
<svg xmlns="http://www.w3.org/2000/svg" xmlns:xlink="http://www.w3.org/1999/xlink" width="512px" height="512px" viewBox="0 0 384 384" version="1.1">
  <g id="surface1">
    <path style=" stroke:none;fill-rule:nonzero;fill:rgb(0%,0%,0%);fill-opacity:1;" d="M 282.960938 4.84375 L 192.65625 194.152344 L 100.339844 4.84375 L 0 4.84375 L 191.984375 378.78125 L 383.972656 4.84375 Z M 282.960938 4.84375 "/>
    <path style=" stroke:none;fill-rule:nonzero;fill:rgb(0%,0%,0%);fill-opacity:1;" d="M 191.984375 107.863281 C 208.789062 107.863281 222.421875 94.230469 222.421875 77.421875 C 222.421875 60.613281 208.789062 46.984375 191.984375 46.984375 C 175.175781 46.984375 161.550781 60.613281 161.550781 77.421875 C 161.550781 94.230469 175.175781 107.863281 191.984375 107.863281 Z M 329.890625 191.808594 C 313.085938 191.808594 299.453125 205.441406 299.453125 222.242188 C 299.453125 239.054688 313.089844 252.683594 329.890625 252.683594 C 346.703125 252.683594 360.324219 239.054688 360.324219 222.242188 C 360.328125 205.441406 346.703125 191.808594 329.890625 191.808594 Z M 329.890625 191.808594 "/>
  </g>
</svg>

<svg xmlns="http://www.w3.org/2000/svg" viewBox="0 0 384 384"><path d="M282.96 4.844l-90.304 189.308L100.34 4.844H0L191.984 378.78 383.973 4.844zm0 0"/><path d="M191.984 107.863c16.805 0 30.438-13.633 30.438-30.441 0-16.809-13.633-30.438-30.438-30.438-16.808 0-30.433 13.63-30.433 30.438s13.625 30.441 30.433 30.441zm137.907 83.946c-16.805 0-30.438 13.632-30.438 30.433 0 16.813 13.637 30.442 30.438 30.442 16.812 0 30.433-13.63 30.433-30.442.004-16.8-13.62-30.433-30.433-30.433zm0 0"/></svg>
